packages/core/src/svgs/fida.svg

<svg width="24" height="24" viewBox="0 0 24 24" fill="none" xmlns="http://www.w3.org/2000/svg">
<g clip-path="url(#clip0_31_10300)">
<path d="M0 0H24V24H0V0Z" fill="url(#paint0_linear_31_10300)"/>
<path d="M11.7986 4.14014H12.2143V7.86871H11.7986V4.14014ZM8.20284 13.8987L8.42141 14.2544L5.27141 16.1401L5.05713 15.7887L8.20284 13.8987ZM15.8571 13.963L15.6428 14.3187L18.84 16.2344L19.0543 15.883L15.8571 13.963Z" fill="#5F60C7"/>
<path fill-rule="evenodd" clip-rule="evenodd" d="M8.14307 9.87007L12.0002 7.71436L15.8574 9.87007V14.1344L12.0002 16.2858L8.14307 14.1344V9.87007ZM8.57164 10.0586L12.0002 8.14293L15.4288 10.0586V13.8472L12.0045 15.8572L8.57164 13.8472V10.0586Z" fill="url(#paint1_linear_31_10300)"/>
<path d="M11.79 11.8755H12.2058V20.0183H11.79V11.8755Z" fill="#8081EE"/>
<path d="M12.2573 11.8757L12.043 12.2271L4.96729 8.17711L5.18157 7.82568L12.2573 11.8757Z" fill="#8081EE"/>
<path d="M11.7856 11.8757L11.9999 12.2271L19.0714 8.17711L18.8571 7.82568L11.7856 11.8757Z" fill="#8081EE"/>
<path fill-rule="evenodd" clip-rule="evenodd" d="M4.71436 7.94979L12.0001 3.85693L19.2858 7.94979V16.0541L12.0001 20.1426L4.71436 16.0541V7.94979ZM5.14293 8.14265L12.0001 4.28551L18.8572 8.14265V15.8569L12.0001 19.7141L5.14293 15.8569V8.14265Z" fill="#8081EE"/>
</g>
<defs>
<linearGradient id="paint0_linear_31_10300" x1="26.7857" y1="12" x2="-3.03" y2="12" gradientUnits="userSpaceOnUse">
<stop stop-color="#101115"/>
<stop offset="0.51" stop-color="#283A5E"/>
<stop offset="1" stop-color="#101115"/>
</linearGradient>
<linearGradient id="paint1_linear_31_10300" x1="12.9859" y1="6.88293" x2="8.99592" y2="15.9901" gradientUnits="userSpaceOnUse">
<stop stop-color="#86E0E9"/>
<stop offset="1" stop-color="#259AC1"/>
</linearGradient>
<clipPath id="clip0_31_10300">
<rect width="24" height="24" fill="white"/>
</clipPath>
</defs>
</svg>

<svg xmlns="http://www.w3.org/2000/svg" width="24" height="24" fill="none" viewBox="0 0 24 24"><g clip-path="url(#a)"><path fill="url(#b)" d="M0 0h24v24H0z"/><path fill="#5F60C7" d="M11.799 4.14h.415V7.87H11.8zM8.203 13.9l.218.355-3.15 1.886-.214-.351zm7.654.064-.214.356 3.197 1.915.214-.351z"/><path fill="url(#c)" fill-rule="evenodd" d="M8.143 9.87 12 7.714l3.857 2.156v4.264L12 16.286l-3.857-2.152zm.429.189L12 8.143l3.429 1.916v3.788l-3.424 2.01-3.433-2.01z" clip-rule="evenodd"/><path fill="#8081EE" d="M11.79 11.876h.416v8.142h-.416z"/><path fill="#8081EE" d="m12.257 11.876-.214.351-7.076-4.05.215-.351z"/><path fill="#8081EE" d="m11.786 11.876.214.351 7.071-4.05-.214-.351z"/><path fill="#8081EE" fill-rule="evenodd" d="M4.714 7.95 12 3.857l7.286 4.093v8.104L12 20.143l-7.286-4.089zm.429.193L12 4.286l6.857 3.857v7.714L12 19.714l-6.857-3.857z" clip-rule="evenodd"/></g><defs><linearGradient id="b" x1="26.786" x2="-3.03" y1="12" y2="12" gradientUnits="userSpaceOnUse"><stop stop-color="#101115"/><stop offset=".51" stop-color="#283A5E"/><stop offset="1" stop-color="#101115"/></linearGradient><linearGradient id="c" x1="12.986" x2="8.996" y1="6.883" y2="15.99" gradientUnits="userSpaceOnUse"><stop stop-color="#86E0E9"/><stop offset="1" stop-color="#259AC1"/></linearGradient><clipPath id="a"><path fill="#fff" d="M0 0h24v24H0z"/></clipPath></defs></svg>
